X:104
T:Highway Man - Townsend
%%VWML:SBG-1-2-154-0
F:http://www.vwml.org/record/SBG/1/2/154
Z:Original Sibelius transcriptions by M. & S. Graebe
M:3/4
I:linebreak $
K:G
V:1 treble nm="P1"
V:1
 D2 | GG G2 BG | EE D2 G2 | AA A2 FA | DD D2 Bc | dd d2 de | cd B2 G2 |$ AB cB AG | AG G2 Bc | %9
 dd d2 e2 | cd B2 GA | AB cB AG | AG G2 x2 | %13
T:Highway Man - Gilbert
F:http://www.vwml.org/record/SBG/1/2/154
Z:Original Sibelius transcriptions by M. & S. Graebe
M:3/4
I:linebreak $
K:F
V:1 treble nm="P1"
V:1
 C2 | CF F2 AF | FD D3 F | EG GA BG | EC C3 B, | A,4 C2 | CF F2 AF |$ FD D3 F | EG GA (3cBG65/64 | %9
 EC C2 A | BB A2 F | BB A3 F | FA c2 BG | FE F4 | %14
T:Highway Man - Barrett
F:http://www.vwml.org/record/SBG/1/2/154
Z:Original Sibelius transcriptions by M. & S. Graebe
M:3/4
I:linebreak $
K:Bb
V:1 treble nm="P1"
V:1
 F | B B B2 A G | F F F2 GA | B B B2 A F | A B c2 z F | A c e2 d c |$ B B d2 z B | c e G2 A F | %8
 B B B2 z B | A B c2 BG | F G A2 z F |$ B B (B2 A) F | A B c3 F | A c e2 d c | B B d3 B | %15
 c e G2 AF | B B B3 x | %17

 e d c B | c B z B | c B c d | e f g d | e d c F | A G2 x | %9

